X:1
T:Title
%%score ( 1 2 ) { 3 | 4 }
L:1/8
M:6/8
K:Db
V:1 treble nm="Grand Piano, Unnamed-000"
V:2 treble 
V:3 bass nm="Choir Pad, Unnamed-001"
V:4 bass 
V:1
 [DF] [DF]2 [D_F] [D=F]2 | [DA] [CA]2 [CE] [CE]2 | [CF] [CG]2 [_CF] [=CG]2 | %3
w: By~Horatio~W.Parker~(1863\-1919) * * *|||
 [CE] [DA]2- [DA]2- [DA]/ z/ | [DF] [DF]2 [D_F] [D=F]2 | [B,A] [CA]2 [CE] [CE]2 | %6
w: |||
 [EA] [=GB]2 [GB] [Gc]2 | [=Gd] [_Ge]2- [Ge]2- [Ge]/ z/ | [Fd] [Fd]2 [Fd] [Fc]2 | %9
w: |||
 [FB] [Gd]2 [Gd] [Gc]2 | [GB] [FA]2 [F=A] [DB]2 | [EB] [F=A]2- [FA]2- [FA]/ z/ | c c2 =G =A2 | %13
w: ||||
 [Fc] [_Fc]2 [F=G] [=F=A]2 | [Fc] [Gc]2 [Gc] [Gd]2 | [GB] [Ge]2- [Ge]3- | [Ge]dc Bdc | %17
w: ||||
 B [Gd]2- [Gd] [Gc]2 | [GB]A=G [_GA]BA | [CG] [DF]2- [DF]3- | [DF] [_CDF]2- [CDF] [CDG]2 | %21
w: ||||
 [_CDA] [B,DGB]2- [B,DGB] [E=Gc]2 | [E=Gd] [_GAe]2- [GAe]3- | [GAe] [FAd]2- [FAd]3- | [FAd]3 z3 |] %25
w: ||||
V:2
 x6 | x6 | x6 | x6 | x6 | x6 | x6 | x6 | x6 | x6 | x6 | x6 | x6 | x6 | x6 | x6 | z F2- F/ z/ F2- | %17
 F3 z3 | z G2 z C2 | x6 | x6 | x6 | x6 | x6 | x6 |] %25
V:3
 A, A,2 A, A,2 | A, G,2 G, G,2 | F, E,2 =D, E,2 | A, A,2- A,2- A,/ z/ | A, A,2 B, A,2 | %5
 F, E,2 A, A,2 | C D2 D C2 | B, C2- C2- C/ z/ | D[K:bass] A,2 A, A,2 | A, A,2 B,[K:treble] C2 | %10
 C D2 _C B,2 | C C2- C2- C/ z/ | C C2[K:bass] =G, =A,2 | =A, =G,2 C C2 | =A, _A,2[K:treble] E D2 | %15
 D C2- C3- | C[K:bass] A,2- A, A,2- | A, A,2 B, C2 | D C2 A,G,F, | E, D,2- D,3- | D, A,2- A, A,2 | %21
 A, G,2- G,[K:treble] D2 | D D2- D C2- | C D2- D3- | D3 z3 |] %25
V:4
 D, D,2 D, A,,2 | F, E,2 E, A,,2 | A,, A,,2 A,, A,,2 | G, F,2- F,2- F,/ z/ | D, D,2 D, D,2 | %5
 .=D,3 E, E,2 | E, E,2 E, E,2 | E, A,2- A,2- A,/ z/ | D, D,2 D, A,,2 | A,, E,2 E, A,,2 | %10
 A,, D,2 D, G,2 | G, F,2- F,2- F,/ z/ | z6 | F, C,2 C, F,2 | .F,3 A, A,2 | A, A,2- A,3- | %16
 A, D,2- D, A,,2- | A,, E,2- E,/ z/ A,,2 | E, C,2- C,/ z/ A,,2 | .A,,3 z3 | z D,2- D, E,2 | %21
 .F,3 z E,2 | E, [A,,A,]2- [A,,A,]3- | [A,,A,] [D,A,]2- [D,A,]3- | [D,A,]3 z3 |] %25

